!!!COM: Palestrina, Giovanni Perluigi da
!!!OPR: Missa De Beata Marie Virginis (III)
!!!OMD: Gloria
!!!OTL: First Section
**kern	**kern	**kern	**kern	**kern
*Ibass	*Itenor	*Itenor	*Icalto	*Icant
!Bassus	!Tenor 2	!Tenor 1	!Altus	!Cantus
*clefF4	*clefGv2	*clefGv2	*clefG2	*clefG2
*k[]	*k[]	*k[]	*k[]	*k[]
*G:mix	*G:mix	*G:mix	*G:mix	*G:mix
*M4/2	*M4/2	*M4/2	*M4/2	*M4/2
=1	=1	=1	=1	=1
0r	0r	0r	0r	1cc
.	.	.	.	1a
=2	=2	=2	=2	=2
0r	1c	0r	0r	1g
.	1A	.	.	4a
.	.	.	.	4b
.	.	.	.	4cc
.	.	.	.	4a
=3	=3	=3	=3	=3
0r	1G	0r	1g	4b
.	.	.	.	4cc
.	.	.	.	1dd
.	1A	.	1e	.
.	.	.	.	2cc
=4	=4	=4	=4	=4
1G	1.B	0r	1d	4dd
.	.	.	.	4cc
.	.	.	.	4b
.	.	.	.	4a
1E	.	.	4e	1g
.	.	.	4f#	.
.	4A	.	4g	.
.	4G	.	4e	.
=5	=5	=5	=5	=5
1D	1A	0r	4f#	1dd
.	.	.	2g	.
.	.	.	4f#	.
1E	1G	.	1g	2b
.	.	.	.	[2cc
=6	=6	=6	=6	=6
1.F	2r	1c	0a	4cc]
.	.	.	.	4b
.	1c	.	.	4a
.	.	.	.	4g
.	.	1A	.	2f
4E	[2d	.	.	2f
4D	.	.	.	.
=7	=7	=7	=7	=7
1E	4d]	1G	1r	2.g
.	8c#	.	.	.
.	8B	.	.	.
.	2c#	.	.	.
.	.	.	.	4e
2D	2d	1A	1a	4f
.	.	.	.	4g
2D	[2d	.	.	4a
.	.	.	.	4f
=8	=8	=8	=8	=8
2G	4d]	1.B	2d	2.g
.	4c	.	.	.
1G	4B	.	2d	.
.	4A	.	.	4a
.	1G	.	2d	2b
2E	.	4A	[2g	2cc
.	.	4G	.	.
=9	=9	=9	=9	=9
0D	0d	0A	2g]	0dd
.	.	.	4f#	.
.	.	.	4e	.
.	.	.	1f#	.
=10	=10	=10	=10	=10
[0G	[0d	[0G	[0g	[0b
=11	=11	=11	=11	=11
0G]	0d]	0G]	0g]	0b]
*-	*-	*-	*-	*-
!!!CDT: 1525/^1526/-1594/2/2
!!!OCY: Italia
!!!AGN: Mass (Paraphrase)
!!!AST: renaissance, vocal
!!!ASW: Gregorian Mass
!!!PWK: Masses, Book Mantuan I
!!!RNB: Cadence finals: D
!!!YOR: Le Opere Complete, v. 18, p. 162
!!!YOO: Rome, Italy: Fratelli Scalera
!!!END: 1992//
!!!EED: John Miller
!!!YEC: Copyright 2000, John Miller
!!!YEN: United States of America
!!!YEM: Rights to all derivative electronic formats reserved.
!!!YEM: Refer to licensing agreement for further details.
!!!YEM: This file must be accompanied by the licensing agreement.
!!!YEM: A copy of the licensing agreement may be found at http://www.music-cog.ohio-state.edu/HumdrumDatabases/Palestrina/license.txt
!!!EMD: converted to Humdrum by Bret Aarden
